flaticon/file-type/exe.svg

<svg xmlns="http://www.w3.org/2000/svg" width="32" height="32" viewBox="0 0 24 24">
    <path d="M 21.082031 5.042969 L 20.765625 4.722656 L 16.585938 0.546875 L 16.265625 0.226562 C 16.121094 0.0820312 15.921875 0 15.71875 0 L 3.707031 0 C 3.21875 0 2.691406 0.378906 2.691406 1.210938 L 2.691406 23.171875 C 2.691406 23.519531 3.039062 23.855469 3.449219 23.960938 C 3.472656 23.96875 3.492188 23.976562 3.511719 23.980469 C 3.578125 23.992188 3.644531 24 3.707031 24 L 20.292969 24 C 20.355469 24 20.421875 23.992188 20.488281 23.980469 C 20.507812 23.976562 20.527344 23.96875 20.550781 23.960938 C 20.960938 23.855469 21.308594 23.519531 21.308594 23.171875 L 21.308594 5.785156 C 21.308594 5.464844 21.273438 5.230469 21.082031 5.042969 Z M 19.835938 4.964844 L 16.34375 4.964844 L 16.34375 1.476562 Z M 3.707031 23.171875 C 3.679688 23.171875 3.652344 23.160156 3.625 23.152344 C 3.5625 23.121094 3.515625 23.058594 3.515625 22.980469 L 3.515625 16.964844 L 20.484375 16.964844 L 20.484375 22.980469 C 20.484375 23.058594 20.4375 23.121094 20.375 23.152344 C 20.347656 23.160156 20.320312 23.171875 20.292969 23.171875 Z M 3.515625 16.136719 L 3.515625 1.210938 C 3.515625 1.121094 3.53125 0.828125 3.707031 0.828125 L 15.542969 0.828125 C 15.527344 0.878906 15.515625 0.933594 15.515625 0.988281 L 15.515625 5.792969 L 20.320312 5.792969 C 20.375 5.792969 20.429688 5.78125 20.480469 5.769531 C 20.480469 5.773438 20.484375 5.777344 20.484375 5.785156 L 20.484375 16.136719 Z M 3.515625 16.136719"/>
    <path d="M6.792969 22.34375L9.398438 22.34375 9.398438 21.828125 7.480469 21.828125 7.480469 20.464844 9.226562 20.464844 9.226562 20.003906 7.480469 20.003906 7.480469 18.691406 9.398438 18.691406 9.398438 18.175781 6.792969 18.175781zM12.589844 18.175781L11.792969 19.871094 11.738281 19.871094 11 18.175781 10.226562 18.175781 11.351562 20.320312 10.292969 22.34375 11.082031 22.34375 11.792969 20.773438 11.851562 20.773438 12.511719 22.34375 13.296875 22.34375 12.238281 20.320312 13.367188 18.175781zM14.316406 22.34375L16.925781 22.34375 16.925781 21.828125 15.007812 21.828125 15.007812 20.464844 16.75 20.464844 16.75 20.003906 15.007812 20.003906 15.007812 18.691406 16.925781 18.691406 16.925781 18.175781 14.316406 18.175781zM16.46875 6.226562C16.25 6.15625 16.019531 6.277344 15.949219 6.496094L13.878906 13.117188C13.8125 13.335938 13.933594 13.566406 14.152344 13.636719 14.195312 13.648438 14.234375 13.65625 14.277344 13.65625 14.453125 13.65625 14.613281 13.542969 14.671875 13.363281L16.738281 6.742188C16.808594 6.527344 16.6875 6.292969 16.46875 6.226562zM13.035156 8.484375C13.035156 8.824219 12.757812 9.101562 12.414062 9.101562 12.070312 9.101562 11.792969 8.824219 11.792969 8.484375 11.792969 8.140625 12.070312 7.863281 12.414062 7.863281 12.757812 7.863281 13.035156 8.140625 13.035156 8.484375zM13.035156 11.378906C13.035156 11.722656 12.757812 12 12.414062 12 12.070312 12 11.792969 11.722656 11.792969 11.378906 11.792969 11.035156 12.070312 10.757812 12.414062 10.757812 12.757812 10.757812 13.035156 11.035156 13.035156 11.378906zM9.308594 7.863281L10.136719 7.863281C10.367188 7.863281 10.550781 7.675781 10.550781 7.449219 10.550781 7.21875 10.367188 7.035156 10.136719 7.035156L9.308594 7.035156C7.714844 7.035156 6.414062 8.332031 6.414062 9.929688 6.414062 11.527344 7.714844 12.828125 9.308594 12.828125L10.136719 12.828125C10.367188 12.828125 10.550781 12.640625 10.550781 12.414062 10.550781 12.183594 10.367188 12 10.136719 12L9.308594 12C8.167969 12 7.242188 11.070312 7.242188 9.929688 7.242188 8.789062 8.167969 7.863281 9.308594 7.863281zM9.308594 7.863281"/>
</svg>

<svg xmlns="http://www.w3.org/2000/svg" width="32" height="32" viewBox="0 0 24 24">
    <path d="M21.082 5.043l-.316-.32-4.18-4.176-.32-.32A.778.778 0 0 0 15.719 0H3.707c-.488 0-1.016.379-1.016 1.21v21.962c0 .348.348.683.758.789.024.008.043.016.063.02.066.011.133.019.195.019h16.586c.062 0 .129-.008.195-.02.02-.003.04-.011.063-.02.41-.105.758-.44.758-.788V5.785c0-.32-.036-.555-.227-.742zm-1.246-.078h-3.492V1.477zM3.707 23.172c-.027 0-.055-.012-.082-.02a.192.192 0 0 1-.11-.172v-6.015h16.97v6.015c0 .079-.047.141-.11.172-.027.008-.055.02-.082.02zm-.191-7.035V1.21c0-.09.015-.383.191-.383h11.836a.55.55 0 0 0-.027.16v4.805h4.804a.72.72 0 0 0 .16-.023c0 .003.004.007.004.015v10.352zm0 0"/>
    <path d="M6.793 22.344h2.605v-.516H7.48v-1.363h1.747v-.461H7.48V18.69h1.918v-.515H6.793zm0 0M12.59 18.176l-.797 1.695h-.055L11 18.176h-.773l1.125 2.144-1.059 2.024h.789l.711-1.57h.059l.66 1.57h.785l-1.059-2.024 1.13-2.144zm0 0M14.316 22.344h2.61v-.516h-1.918v-1.363h1.742v-.461h-1.742V18.69h1.918v-.515h-2.61zm0 0M16.469 6.227a.412.412 0 0 0-.52.27l-2.07 6.62a.418.418 0 0 0 .398.54.416.416 0 0 0 .395-.294l2.066-6.62a.408.408 0 0 0-.27-.516zm0 0M13.035 8.484a.62.62 0 0 1-.62.618.62.62 0 1 1 0-1.239.62.62 0 0 1 .62.621zm0 0M13.035 11.379a.62.62 0 1 1-1.242 0 .62.62 0 1 1 1.242 0zm0 0M9.309 7.863h.828a.414.414 0 0 0 0-.828h-.828A2.898 2.898 0 0 0 6.414 9.93c0 1.597 1.3 2.898 2.895 2.898h.828a.414.414 0 0 0 0-.828h-.828a2.067 2.067 0 1 1 0-4.137zm0 0"/>
</svg>
